resources/svg/panel-add-o.svg

<svg xmlns="http://www.w3.org/2000/svg" data-name="Layer 1" viewBox="0 0 24 24" fill="currentColor" stroke="none"><path d="M18 10h-4V3a1 1 0 0 0-1-1H8a1 1 0 0 0-1 1v5H3a1 1 0 0 0-1 1v12a1 1 0 0 0 1 1h15a1 1 0 0 0 1-1V11a1 1 0 0 0-1-1ZM7 20H4V10h3Zm5 0H9V4h3Zm5 0h-3v-8h3Zm4-16h-1V3a1 1 0 0 0-2 0v1h-1a1 1 0 0 0 0 2h1v1a1 1 0 0 0 2 0V6h1a1 1 0 0 0 0-2Z"/></svg>

<svg xmlns="http://www.w3.org/2000/svg" data-name="Layer 1" viewBox="0 0 24 24" fill="currentColor" stroke="none"><path d="M18,10H14V3a1,1,0,0,0-1-1H8A1,1,0,0,0,7,3V8H3A1,1,0,0,0,2,9V21a1,1,0,0,0,1,1H18a1,1,0,0,0,1-1V11A1,1,0,0,0,18,10ZM7,20H4V10H7Zm5,0H9V4h3Zm5,0H14V12h3ZM21,4H20V3a1,1,0,0,0-2,0V4H17a1,1,0,0,0,0,2h1V7a1,1,0,0,0,2,0V6h1a1,1,0,0,0,0-2Z"/></svg>
